X: 28577
T: Murphy's Hound
R: reel
M: 4/4
K: Gmajor
g|:edBA G3A|(3Bcd ef gbag|edBA G2 GA|1 (3Bcd ed BAAg:|2 (3Bcd ed BAA2||
ea ~a2 bgag|eaaf gedf|ea ~a2 bgag|egdB BA (3Bcd|
ea ~a2 bgag|eaaf ~g3a|bgaf gfed|(3Bcd ef gbag||

